data/icons/elementary/hicolor/24x24/status/haguichi-connected-symbolic.svg

<?xml version="1.0" encoding="UTF-8" standalone="no"?>
<svg
   xmlns:dc="http://purl.org/dc/elements/1.1/"
   xmlns:cc="http://creativecommons.org/ns#"
   xmlns:rdf="http://www.w3.org/1999/02/22-rdf-syntax-ns#"
   xmlns:svg="http://www.w3.org/2000/svg"
   xmlns="http://www.w3.org/2000/svg"
   id="svg6001"
   height="24"
   width="24"
   version="1.1">
  <metadata
     id="metadata14">
    <rdf:RDF>
      <cc:Work
         rdf:about="">
        <dc:format>image/svg+xml</dc:format>
        <dc:type
           rdf:resource="http://purl.org/dc/dcmitype/StillImage" />
        <dc:title></dc:title>
      </cc:Work>
    </rdf:RDF>
  </metadata>
  <defs
     id="defs6003" />
  <path
     id="rect4985"
     d="M 13 5 L 6.09375 12.5 L 8.5214844 15.123047 L 8.53125 15.132812 L 13 20 L 18.027344 20 L 11.558594 12.974609 L 8.5859375 15.078125 L 11.121094 12.5 L 18.027344 5 L 13 5 z "
     style="color:#000000;display:inline;overflow:visible;visibility:visible;fill:#bebebe;fill-opacity:1;fill-rule:nonzero;stroke:none;stroke-width:1;marker:none;enable-background:new" />
</svg>

<svg xmlns:rdf="http://www.w3.org/1999/02/22-rdf-syntax-ns#" xmlns="http://www.w3.org/2000/svg" version="1.1" xmlns:cc="http://creativecommons.org/ns#" xmlns:dc="http://purl.org/dc/elements/1.1/" viewBox="0 0 24 24">
 <path style="color:#000000;enable-background:new" d="m13 5l-6.9062 7.5 2.4277 2.623 0.0097 0.01 4.4688 4.867h5.027l-6.468-7.025-2.9731 2.103 2.5351-2.578 6.906-7.5h-5.027z" fill="#bebebe"/>
</svg>
